Icons/rename_me_holoirc.svg

<svg viewBox="0 0 48 48" xmlns:xlink="http://www.w3.org/1999/xlink">
 <defs>
  <linearGradient id="0">
   <stop stop-opacity="0"/>
   <stop offset="1"/>
  </linearGradient>
  <linearGradient xlink:href="#0" id="1" gradientUnits="userSpaceOnUse" gradientTransform="translate(4e-7,-48)" y1="47" x2="0" y2="1"/>
  <clipPath id="2">
   <g transform="translate(0,-1004.3622)">
    <rect rx="4" y="1005.36" x="1" height="46" width="46" fill="#1890d0"/>
   </g>
  </clipPath>
  <clipPath id="3">
   <g transform="translate(0,-1004.3622)">
    <rect rx="4" y="1005.36" x="1" height="46" width="46" fill="#1890d0"/>
   </g>
  </clipPath>
 </defs>
 <g>
  <g transform="translate(0,-1004.3622)">
   <path d="m 5,1006.3622 c -2.216,0 -4,1.784 -4,4 l 0,37.25 c 0,2.216 1.784,4 4,4 l 38,0 c 2.216,0 4,-1.784 4,-4 l 0,-37.25 c 0,-2.216 -1.784,-4 -4,-4 l -38,0 z m -4,41.5 0,0.5 c 0,2.216 1.784,4 4,4 l 38,0 c 2.216,0 4,-1.784 4,-4 l 0,-0.5 c 0,2.216 -1.784,4 -4,4 l -38,0 c -2.216,0 -4,-1.784 -4,-4 z" opacity="0.02"/>
   <path d="m 1,1047.6122 0,0.25 c 0,2.216 1.784,4 4,4 l 38,0 c 2.216,0 4,-1.784 4,-4 l 0,-0.25 c 0,2.216 -1.784,4 -4,4 l -38,0 c -2.216,0 -4,-1.784 -4,-4 z" opacity="0.05"/>
   <rect width="46" height="46" x="1" y="1005.61" rx="4" opacity="0.1"/>
  </g>
 </g>
 <g>
  <g transform="translate(0,-1004.3622)">
   <rect rx="4" y="1005.36" x="1" height="46" width="46" fill="#276dae"/>
  </g>
 </g>
 <g>
  <rect transform="scale(1,-1)" width="46" height="46" x="1" y="-46.998" rx="4" opacity="0.1" fill="url(#1)"/>
 </g>
 <g>
  <g clip-path="url(#2)">
   <g opacity="0.1">
    <g>
     <path d="M 23.941406 12 C 23.699219 12 23.464844 12.015625 23.222656 12.03125 C 21.605469 12.140625 19.992188 12.585938 18.566406 13.34375 C 15.800781 14.8125 13.816406 17.34375 13.1875 20.25 C 13.015625 21.042969 13 21.394531 13 22.375 C 13 23.066406 12.996094 23.289062 13.03125 23.53125 C 13.28125 25.285156 13.855469 26.671875 14.84375 28.0625 C 15.785156 29.386719 17.0625 30.519531 18.535156 31.3125 C 20.058594 32.132812 21.699219 32.585938 23.441406 32.65625 C 23.699219 32.667969 23.988281 32.679688 24.003906 32.6875 L 24.003906 36 C 24.003906 35.996094 24.722656 35.804688 25.566406 35.375 C 27.160156 34.539062 28.570312 33.625 29.820312 32.5625 C 32.9375 29.90625 34.691406 26.707031 34.980469 23.1875 C 35.015625 22.714844 35 21.5625 34.949219 21.15625 C 34.640625 18.851562 33.605469 16.785156 31.914062 15.15625 C 30.328125 13.628906 28.351562 12.632812 26.128906 12.21875 C 25.410156 12.085938 24.675781 12 23.941406 12 Z M 23.503906 17 L 24.503906 17 L 24.003906 20 L 26.257812 20 L 27.007812 17 L 28.007812 17 L 27.257812 20 L 30.007812 20 L 30.007812 21 L 27.007812 21 L 26.257812 25 L 29.007812 25 L 29.007812 26 L 26.003906 26 L 25.253906 29 L 24.253906 29 L 25.003906 26 L 22.722656 26 L 22.003906 29 L 21.003906 29 L 21.753906 26 L 19.003906 26 L 19.003906 25 L 22.003906 25 L 22.753906 21 L 20.003906 21 L 20.003906 20 L 23.003906 20 Z M 23.753906 21 L 23.003906 25 L 25.253906 25 L 26.003906 21 Z M 23.753906 21 "/>
    </g>
   </g>
  </g>
 </g>
 <g>
  <g clip-path="url(#3)">
   <g transform="translate(0,-1)">
    <g>
     <path d="M 23.941406 12 C 23.699219 12 23.464844 12.015625 23.222656 12.03125 C 21.605469 12.140625 19.992188 12.585938 18.566406 13.34375 C 15.800781 14.8125 13.816406 17.34375 13.1875 20.25 C 13.015625 21.042969 13 21.394531 13 22.375 C 13 23.066406 12.996094 23.289062 13.03125 23.53125 C 13.28125 25.285156 13.855469 26.671875 14.84375 28.0625 C 15.785156 29.386719 17.0625 30.519531 18.535156 31.3125 C 20.058594 32.132812 21.699219 32.585938 23.441406 32.65625 C 23.699219 32.667969 23.988281 32.679688 24.003906 32.6875 L 24.003906 36 C 24.003906 35.996094 24.722656 35.804688 25.566406 35.375 C 27.160156 34.539062 28.570312 33.625 29.820312 32.5625 C 32.9375 29.90625 34.691406 26.707031 34.980469 23.1875 C 35.015625 22.714844 35 21.5625 34.949219 21.15625 C 34.640625 18.851562 33.605469 16.785156 31.914062 15.15625 C 30.328125 13.628906 28.351562 12.632812 26.128906 12.21875 C 25.410156 12.085938 24.675781 12 23.941406 12 Z M 23.503906 17 L 24.503906 17 L 24.003906 20 L 26.257812 20 L 27.007812 17 L 28.007812 17 L 27.257812 20 L 30.007812 20 L 30.007812 21 L 27.007812 21 L 26.257812 25 L 29.007812 25 L 29.007812 26 L 26.003906 26 L 25.253906 29 L 24.253906 29 L 25.003906 26 L 22.722656 26 L 22.003906 29 L 21.003906 29 L 21.753906 26 L 19.003906 26 L 19.003906 25 L 22.003906 25 L 22.753906 21 L 20.003906 21 L 20.003906 20 L 23.003906 20 Z M 23.753906 21 L 23.003906 25 L 25.253906 25 L 26.003906 21 Z M 23.753906 21 " fill="#f9f9f9"/>
    </g>
   </g>
  </g>
 </g>
 <g>
  <g transform="translate(0,-1004.3622)">
   <path d="m 1,1043.3622 0,4 c 0,2.216 1.784,4 4,4 l 38,0 c 2.216,0 4,-1.784 4,-4 l 0,-4 c 0,2.216 -1.784,4 -4,4 l -38,0 c -2.216,0 -4,-1.784 -4,-4 z" opacity="0.1"/>
  </g>
 </g>
</svg>

<svg viewBox="0 0 48 48"><defs><linearGradient id="linearGradient3764" x1="1" x2="47" gradientUnits="userSpaceOnUse" gradientTransform="translate(-48.000001,0.00221467)"><stop stop-color="#23629d" stop-opacity="1"/><stop offset="1" stop-color="#276dae" stop-opacity="1"/></linearGradient><clipPath id="clipPath-347126011"><g transform="translate(0,-1004.3622)"><rect rx="4" y="1005.36" x="1" height="46" width="46" fill="#1890d0"/></g></clipPath><clipPath id="clipPath-359940596"><g transform="translate(0,-1004.3622)"><rect rx="4" y="1005.36" x="1" height="46" width="46" fill="#1890d0"/></g></clipPath></defs><g><path d="m 1 43 l 0 0.25 c 0 2.216 1.784 4 4 4 l 38 0 c 2.216 0 4 -1.784 4 -4 l 0 -0.25 c 0 2.216 -1.784 4 -4 4 l -38 0 c -2.216 0 -4 -1.784 -4 -4 z m 0 0.5 l 0 0.5 c 0 2.216 1.784 4 4 4 l 38 0 c 2.216 0 4 -1.784 4 -4 l 0 -0.5 c 0 2.216 -1.784 4 -4 4 l -38 0 c -2.216 0 -4 -1.784 -4 -4 z" opacity="0.02"/><path d="m 1 43.25 l 0 0.25 c 0 2.216 1.784 4 4 4 l 38 0 c 2.216 0 4 -1.784 4 -4 l 0 -0.25 c 0 2.216 -1.784 4 -4 4 l -38 0 c -2.216 0 -4 -1.784 -4 -4 z" opacity="0.05"/><path d="m 1 43 l 0 0.25 c 0 2.216 1.784 4 4 4 l 38 0 c 2.216 0 4 -1.784 4 -4 l 0 -0.25 c 0 2.216 -1.784 4 -4 4 l -38 0 c -2.216 0 -4 -1.784 -4 -4 z" opacity="0.1"/></g><g><rect width="46" height="46" x="-47" y="1" rx="4" transform="matrix(0,-1,1,0,0,0)" fill="url(#linearGradient3764)" fill-opacity="1"/></g><g><g clip-path="url(#clipPath-347126011)"><g opacity="0.1"><!-- color: #276dae --><g><path d="m 23.941 12 c -0.242 0 -0.477 0.016 -0.719 0.031 c -1.617 0.109 -3.23 0.555 -4.656 1.313 c -2.766 1.469 -4.75 4 -5.379 6.906 c -0.172 0.793 -0.188 1.145 -0.188 2.125 c 0 0.691 -0.004 0.914 0.031 1.156 c 0.25 1.754 0.824 3.141 1.813 4.531 c 0.941 1.324 2.219 2.457 3.691 3.25 c 1.523 0.82 3.164 1.273 4.906 1.344 c 0.258 0.012 0.547 0.023 0.563 0.031 l 0 3.313 c 0 -0.004 0.719 -0.195 1.563 -0.625 c 1.594 -0.836 3 -1.75 4.254 -2.813 c 3.117 -2.656 4.871 -5.855 5.16 -9.375 c 0.035 -0.473 0.02 -1.625 -0.031 -2.031 c -0.309 -2.305 -1.344 -4.371 -3.035 -6 c -1.586 -1.527 -3.563 -2.523 -5.785 -2.938 c -0.719 -0.133 -1.453 -0.219 -2.188 -0.219 m -0.438 5 l 1 0 l -0.5 3 l 2.254 0 l 0.75 -3 l 1 0 l -0.75 3 l 2.75 0 l 0 1 l -3 0 l -0.75 4 l 2.75 0 l 0 1 l -3 0 l -0.75 3 l -1 0 l 0.75 -3 l -2.281 0 l -0.719 3 l -1 0 l 0.75 -3 l -2.75 0 l 0 -1 l 3 0 l 0.75 -4 l -2.75 0 l 0 -1 l 3 0 m 0.75 1 l -0.75 4 l 2.25 0 l 0.75 -4 m -2.25 0" fill="#000"/></g></g></g></g><g><g clip-path="url(#clipPath-359940596)"><g transform="translate(0,-1)"><!-- color: #276dae --><g><path d="m 23.941 12 c -0.242 0 -0.477 0.016 -0.719 0.031 c -1.617 0.109 -3.23 0.555 -4.656 1.313 c -2.766 1.469 -4.75 4 -5.379 6.906 c -0.172 0.793 -0.188 1.145 -0.188 2.125 c 0 0.691 -0.004 0.914 0.031 1.156 c 0.25 1.754 0.824 3.141 1.813 4.531 c 0.941 1.324 2.219 2.457 3.691 3.25 c 1.523 0.82 3.164 1.273 4.906 1.344 c 0.258 0.012 0.547 0.023 0.563 0.031 l 0 3.313 c 0 -0.004 0.719 -0.195 1.563 -0.625 c 1.594 -0.836 3 -1.75 4.254 -2.813 c 3.117 -2.656 4.871 -5.855 5.16 -9.375 c 0.035 -0.473 0.02 -1.625 -0.031 -2.031 c -0.309 -2.305 -1.344 -4.371 -3.035 -6 c -1.586 -1.527 -3.563 -2.523 -5.785 -2.938 c -0.719 -0.133 -1.453 -0.219 -2.188 -0.219 m -0.438 5 l 1 0 l -0.5 3 l 2.254 0 l 0.75 -3 l 1 0 l -0.75 3 l 2.75 0 l 0 1 l -3 0 l -0.75 4 l 2.75 0 l 0 1 l -3 0 l -0.75 3 l -1 0 l 0.75 -3 l -2.281 0 l -0.719 3 l -1 0 l 0.75 -3 l -2.75 0 l 0 -1 l 3 0 l 0.75 -4 l -2.75 0 l 0 -1 l 3 0 m 0.75 1 l -0.75 4 l 2.25 0 l 0.75 -4 m -2.25 0" fill="#f9f9f9"/></g></g></g></g><g><g transform="translate(0,-1004.3622)"><path d="m 1 1043.36 0 4 c 0 2.216 1.784 4 4 4 l 38 0 c 2.216 0 4 -1.784 4 -4 l 0 -4 c 0 2.216 -1.784 4 -4 4 l -38 0 c -2.216 0 -4 -1.784 -4 -4 z" opacity="0.1"/></g></g></svg>
